tools/download-figma-icons/icons/outlined-large/help.svg

<svg width="64" height="64" viewBox="0 0 64 64" fill="none" xmlns="http://www.w3.org/2000/svg">
<path fill-rule="evenodd" clip-rule="evenodd" d="M61 42.4497C61 44.9587 58.959 46.9996 56.4491 46.9996H25.3933C25.0623 46.9996 24.7403 47.1086 24.4793 47.3096L13.8814 55.4546V48.4996C13.8814 47.6716 13.2094 46.9996 12.3814 46.9996H7.56043C5.04645 46.9996 3.00047 44.9587 3.00047 42.4497V11.5599C3.00047 9.04593 5.04645 6.99995 7.56043 6.99995H56.4491C58.959 6.99995 61 9.04593 61 11.5599V42.4497ZM56.4491 3.99997H7.56043C3.39246 3.99997 0.000488278 7.39094 0.000488278 11.5599V42.4497C0.000488278 46.6126 3.39246 49.9996 7.56043 49.9996H10.8814V58.4996C10.8814 59.0705 11.2054 59.5925 11.7184 59.8455C11.9284 59.9485 12.1554 59.9995 12.3814 59.9995C12.7054 59.9995 13.0274 59.8935 13.2954 59.6885L25.9023 49.9996H56.4491C60.612 49.9996 64 46.6126 64 42.4497V11.5599C64 7.39094 60.612 3.99997 56.4491 3.99997ZM31.9767 34.4497C30.8998 34.4207 29.9948 35.2677 29.9218 36.3457C29.8788 37.0937 30.2388 37.7977 30.8848 38.1997C31.5177 38.5877 32.3077 38.6017 32.9547 38.2277C33.6007 37.8547 33.9887 37.1507 33.9747 36.4177C33.9457 35.3257 33.0687 34.4637 31.9767 34.4497ZM28.3998 16.3897C30.5828 15.3407 33.0827 15.2117 35.3537 16.0447C36.9627 16.5617 38.2707 17.7827 38.9027 19.3627C39.2907 20.3556 39.4197 21.4326 39.3047 22.4816C39.1757 23.7886 38.5857 24.9956 37.6097 25.8716C37.0267 26.4434 36.4071 26.9786 35.788 27.5132C35.6286 27.6509 35.4693 27.7884 35.3107 27.9266C34.7077 28.3716 34.2327 28.9756 33.9317 29.6646C33.7447 30.2116 33.6437 30.7856 33.6287 31.3606C33.6287 31.4978 33.6157 31.6351 33.6026 31.7724C33.5965 31.8361 33.5905 31.8998 33.5857 31.9636C33.5857 32.0656 33.5577 32.1216 33.4427 32.1216H30.3968C30.2958 32.1216 30.2388 32.0936 30.2528 31.9926C30.2248 30.9866 30.3388 29.9956 30.5548 29.0326C30.8568 28.0126 31.4317 27.1076 32.2207 26.4176C32.9117 25.7856 33.5857 25.1536 34.2327 24.4786C34.7797 23.9326 35.1527 23.2286 35.2957 22.4666C35.5547 21.1736 35.0667 20.2256 33.8307 19.7656C32.6377 19.3197 31.3017 19.3627 30.1528 19.9086C29.3628 20.2976 28.8018 21.0156 28.6288 21.8776C28.5578 22.1646 28.5148 22.4526 28.4858 22.7546C28.4858 22.9266 28.3998 22.9836 28.2268 22.9696H24.8228C24.7218 22.9696 24.6348 22.9696 24.6498 22.8256C24.6498 21.6626 24.8938 20.4986 25.3688 19.4207C25.9858 18.0847 27.0638 17.0077 28.3998 16.3897Z" fill="black"/>
</svg>

<svg width="64" height="64" viewBox="0 0 64 64" fill="none" xmlns="http://www.w3.org/2000/svg"><path fill-rule="evenodd" clip-rule="evenodd" d="M61 42.45A4.555 4.555 0 0 1 56.45 47H25.392a1.5 1.5 0 0 0-.914.31L13.88 55.455V48.5a1.5 1.5 0 0 0-1.5-1.5H7.56A4.56 4.56 0 0 1 3 42.45V11.56A4.566 4.566 0 0 1 7.56 7h48.888A4.56 4.56 0 0 1 61 11.56v30.89ZM56.45 4H7.56C3.392 4 0 7.39 0 11.56v30.89C0 46.613 3.392 50 7.56 50h3.321v8.5a1.5 1.5 0 0 0 2.414 1.188L25.902 50H56.45c4.162 0 7.55-3.387 7.55-7.55V11.56C64 7.39 60.612 4 56.45 4ZM31.976 34.45c-1.077-.03-1.982.818-2.055 1.896a2.032 2.032 0 0 0 .963 1.854 2.017 2.017 0 0 0 2.07.028 2.055 2.055 0 0 0 1.02-1.81 2.016 2.016 0 0 0-1.998-1.968ZM28.4 16.39a8.93 8.93 0 0 1 6.954-.345 5.72 5.72 0 0 1 3.549 3.318 6.61 6.61 0 0 1 .402 3.119 5.217 5.217 0 0 1-1.695 3.39 38.705 38.705 0 0 1-1.822 1.641c-.16.138-.319.275-.477.414a4.299 4.299 0 0 0-1.38 1.738 5.711 5.711 0 0 0-.302 1.696c0 .137-.013.274-.026.411a9.42 9.42 0 0 0-.017.192c0 .102-.028.158-.143.158h-3.046c-.101 0-.158-.028-.144-.13a11.988 11.988 0 0 1 .302-2.96 5.56 5.56 0 0 1 1.666-2.614 42.334 42.334 0 0 0 2.012-1.94 3.85 3.85 0 0 0 1.063-2.011c.259-1.293-.23-2.241-1.465-2.701a4.735 4.735 0 0 0-3.678.143 2.804 2.804 0 0 0-1.524 1.969 6.008 6.008 0 0 0-.143.877c0 .172-.086.229-.26.215h-3.403c-.101 0-.188 0-.173-.144a8.46 8.46 0 0 1 .719-3.405 6.218 6.218 0 0 1 3.03-3.031Z" fill="currentColor"/></svg>
